X: 43480
T: Yellow Rose Of Texas
R: polka
M: 2/4
K: Dmajor
A/G/|"D" FA A>A|"D" B A2 G|"D" FA "G" d>e|"D" f3 A|
"A" Af f>f|"A" f e2 d|"A" cd "Em" e>f|"A" e3 A/G/|
"D" FA A>A|"D" B A2 G|"D" FA "G" d>e|"D" f3 B|
"G" Bg g>g|"Em" g f2 e|"D" dA "A" f>e|"D" d3||

